img/brand/brand6.svg

<svg width="90" height="55" viewBox="0 0 90 55" fill="none" xmlns="http://www.w3.org/2000/svg">
<path d="M12.9461 34.6768C17.5726 34.6768 21.3231 31.0432 21.3231 26.5609C21.3231 22.0787 17.5726 18.4451 12.9461 18.4451C8.31969 18.4451 4.56921 22.0787 4.56921 26.5609C4.56921 31.0432 8.31969 34.6768 12.9461 34.6768Z" fill="#BDBDBD"/>
<path d="M11.6308 21.5975L10.3154 26.3597L9.41538 26.6951L9 28.2378L9.9 27.9024L9.13846 30.6524H17.1L17.6538 28.6402H12.8769L13.4308 26.6951L14.3308 26.3597L14.7462 24.817L13.8462 25.0853L14.8154 21.5975H11.6308Z" fill="white"/>
<path d="M22.0154 32.8658L24.5077 21.1951H27L24.9231 30.9207H31.0154L30.6692 32.8658H22.0154Z" fill="white"/>
<path d="M34.0616 24.4146H36.4154L34.5462 32.8658H32.1923L34.0616 24.4146ZM34.7539 21.1951H37.1077L36.6923 23.2743H34.3385L34.7539 21.1951Z" fill="white"/>
<path d="M37.4539 26.0914L37.8 24.4145H38.9769L39.2539 23.0731L41.9539 21.5304L41.3308 24.4816H42.7846L42.4385 26.1584H40.9846L40.2231 29.7133C40.0846 30.3841 40.0154 30.7194 40.0154 30.7865C40.0154 30.9877 40.0846 31.1219 40.1539 31.1889C40.2923 31.256 40.5 31.3231 40.7769 31.3231C40.8462 31.3231 41.1231 31.3231 41.5385 31.256L41.1923 32.9328C40.7769 32.9999 40.3616 33.067 39.9462 33.067C39.1154 33.067 38.4923 32.9328 38.1462 32.5975C37.8 32.2621 37.5923 31.8597 37.5923 31.3231C37.5923 31.0548 37.6616 30.4511 37.8692 29.5121L38.6308 26.0914H37.4539Z" fill="white"/>
<path d="M50.9539 29.3109H45.0692C45.0692 29.378 45.0692 29.4451 45.0692 29.5122C45.0692 30.0487 45.2077 30.5183 45.5539 30.8536C45.9 31.189 46.3154 31.3902 46.7308 31.3902C47.4923 31.3902 48.1154 30.9878 48.5308 30.1829L50.6077 30.5183C50.1923 31.3231 49.6385 31.9268 48.9462 32.3963C48.2539 32.7987 47.4923 33 46.6615 33C45.4846 33 44.5154 32.6646 43.8231 31.9268C43.0615 31.189 42.7154 30.25 42.7154 29.1097C42.7154 27.9695 43.0615 26.8963 43.6846 26.0244C44.5846 24.817 45.9 24.2134 47.5615 24.2134C48.6 24.2134 49.5 24.5487 50.1231 25.1524C50.7462 25.8231 51.0923 26.6951 51.0923 27.8353C51.0923 28.439 51.0923 28.9085 50.9539 29.3109ZM48.9462 27.9695C48.9462 27.8353 48.9462 27.7683 48.9462 27.7683C48.9462 27.1646 48.8077 26.6951 48.5308 26.3597C48.2539 26.0244 47.8385 25.8902 47.3539 25.8902C46.8692 25.8902 46.4539 26.0914 46.0385 26.4268C45.6231 26.7622 45.4154 27.2987 45.2769 27.9695H48.9462Z" fill="white"/>
<path d="M57.7385 29.6463L60.0231 29.9817C59.6769 30.9878 59.0539 31.7256 58.3616 32.2622C57.6 32.7987 56.7692 33 55.8 33C54.6923 33 53.7923 32.6646 53.1692 32.0609C52.5462 31.3902 52.2 30.5183 52.2 29.4451C52.2 28.5061 52.4077 27.6341 52.8231 26.8292C53.2385 26.0244 53.7923 25.3536 54.6231 24.8841C55.3846 24.4146 56.2846 24.2134 57.2539 24.2134C58.2923 24.2134 59.1231 24.4817 59.7462 25.0183C60.3692 25.5548 60.7154 26.2256 60.7846 27.0975L58.5692 27.2987C58.5 26.8292 58.3616 26.4939 58.1539 26.2256C57.8769 26.0244 57.6 25.8902 57.1846 25.8902C56.7 25.8902 56.2846 26.0244 55.9385 26.3597C55.5231 26.6951 55.2462 27.1646 55.0385 27.8353C54.8308 28.5061 54.6923 29.1097 54.6923 29.6463C54.6923 30.1158 54.8308 30.5183 55.0385 30.7866C55.3154 31.0548 55.5923 31.189 56.0077 31.189C56.4231 31.189 56.7692 31.0548 57.1154 30.7866C57.2539 30.5853 57.5308 30.1829 57.7385 29.6463Z" fill="white"/>
<path d="M61.4769 29.378C61.4769 27.8353 61.9615 26.5609 62.8615 25.6219C63.7615 24.6829 64.9385 24.2134 66.4615 24.2134C67.7769 24.2134 68.7462 24.5487 69.4385 25.2195C70.1308 25.8902 70.5462 26.8292 70.5462 27.9695C70.5462 29.3109 70.0615 30.5183 69.1615 31.5244C68.2615 32.5305 67.0846 33 65.5615 33C64.7308 33 64.0385 32.8658 63.3462 32.5305C62.7231 32.1951 62.2385 31.7926 61.9615 31.189C61.6846 30.6524 61.4769 30.0487 61.4769 29.378ZM68.1923 27.7012C68.1923 27.1646 68.0539 26.6951 67.7077 26.4268C67.3615 26.0914 66.9462 25.9573 66.4615 25.9573C65.9769 25.9573 65.4923 26.0914 65.0769 26.4268C64.6615 26.7622 64.3846 27.1646 64.1769 27.7683C63.9692 28.3719 63.8308 28.9085 63.8308 29.378C63.8308 29.9817 63.9692 30.4512 64.3154 30.7866C64.6615 31.1219 65.0769 31.3231 65.5615 31.3231C66.1846 31.3231 66.7385 31.0548 67.1538 30.5183C67.9154 29.7134 68.1923 28.7744 68.1923 27.7012Z" fill="white"/>
<path d="M73.2462 24.4146H75.6L73.8 32.8658H71.4462L73.2462 24.4146ZM73.9385 21.1951H76.2923L75.8769 23.2743H73.5231L73.9385 21.1951Z" fill="white"/>
<path d="M77.9538 24.4146H80.1692L79.9615 25.4878C80.5153 25.0183 81.0692 24.6829 81.5538 24.4817C82.0384 24.2805 82.523 24.2134 83.0769 24.2134C83.7692 24.2134 84.3923 24.4146 84.7384 24.817C85.1538 25.2195 85.3615 25.7561 85.3615 26.4268C85.3615 26.6951 85.2923 27.2987 85.0846 28.1036L84.0461 32.8658H81.6923L82.7307 28.1036C82.8692 27.3658 82.9384 26.9634 82.9384 26.8292C82.9384 26.5609 82.8692 26.2926 82.6615 26.1585C82.4538 26.0244 82.2461 25.8902 81.9 25.8902C81.5538 25.8902 81.1384 26.0244 80.723 26.2926C80.3077 26.5609 79.9615 26.9634 79.7538 27.4329C79.5461 27.7683 79.4077 28.439 79.1307 29.4451L78.3692 32.9329H76.1538L77.9538 24.4146Z" fill="white"/>
</svg>

<svg width="90" height="55" viewBox="0 0 90 55" fill="none" xmlns="http://www.w3.org/2000/svg"><path d="M12.946 34.677c4.627 0 8.377-3.634 8.377-8.116 0-4.482-3.75-8.116-8.377-8.116-4.626 0-8.377 3.634-8.377 8.116 0 4.482 3.75 8.116 8.377 8.116z" fill="#BDBDBD"/><path d="M11.63 21.598l-1.315 4.762-.9.335L9 28.238l.9-.336-.762 2.75H17.1l.554-2.012h-4.777l.554-1.945.9-.335.415-1.543-.9.268.97-3.488H11.63zm10.385 11.268l2.493-11.67H27l-2.077 9.725h6.092l-.346 1.945h-8.654zm12.047-8.451h2.353l-1.869 8.45h-2.354l1.87-8.45zm.692-3.22h2.354l-.416 2.08H34.34l.415-2.08zm2.7 4.896l.346-1.677h1.177l.277-1.34 2.7-1.544-.623 2.952h1.454l-.346 1.676h-1.454l-.762 3.555c-.138.671-.208 1.006-.208 1.073 0 .202.07.336.139.403.138.067.346.134.623.134.07 0 .346 0 .761-.067l-.346 1.677c-.415.067-.83.134-1.246.134-.83 0-1.454-.134-1.8-.47-.346-.335-.554-.737-.554-1.274 0-.268.07-.872.277-1.81l.762-3.422h-1.177zm13.5 3.219h-5.885v.202c0 .537.139 1.006.485 1.342.346.335.761.536 1.177.536.761 0 1.384-.402 1.8-1.207l2.077.335a4.958 4.958 0 01-1.662 1.878 4.465 4.465 0 01-2.285.604c-1.176 0-2.146-.335-2.838-1.073-.761-.738-1.108-1.677-1.108-2.817 0-1.14.346-2.214.97-3.086.9-1.207 2.215-1.81 3.877-1.81 1.038 0 1.938.335 2.561.938.623.671.97 1.543.97 2.683 0 .604 0 1.073-.14 1.476zm-2.008-1.34v-.202c0-.603-.138-1.073-.415-1.408-.277-.336-.692-.47-1.177-.47-.485 0-.9.201-1.316.537-.415.335-.623.872-.761 1.543h3.67zm8.793 1.676l2.284.336c-.346 1.006-.97 1.744-1.661 2.28C57.6 32.8 56.769 33 55.8 33c-1.108 0-2.008-.335-2.63-.94-.624-.67-.97-1.542-.97-2.615 0-.939.208-1.81.623-2.616.416-.805.97-1.475 1.8-1.945.762-.47 1.662-.67 2.63-.67 1.04 0 1.87.268 2.493.804.623.537.97 1.208 1.039 2.08l-2.216.2c-.069-.469-.207-.804-.415-1.072-.277-.202-.554-.336-.97-.336-.484 0-.9.134-1.245.47-.416.335-.693.805-.9 1.475-.208.671-.347 1.275-.347 1.811 0 .47.139.872.346 1.14.277.269.554.403.97.403.415 0 .761-.134 1.107-.402.139-.202.416-.604.623-1.14zm3.738-.268c0-1.543.485-2.817 1.385-3.756.9-.94 2.077-1.409 3.6-1.409 1.315 0 2.284.336 2.977 1.006.692.671 1.107 1.61 1.107 2.75 0 1.342-.485 2.55-1.385 3.555-.9 1.007-2.076 1.476-3.6 1.476-.83 0-1.523-.134-2.215-.47-.623-.335-1.107-.737-1.384-1.341-.277-.537-.485-1.14-.485-1.811zm6.715-1.677c0-.536-.138-1.006-.484-1.274-.346-.336-.762-.47-1.246-.47-.485 0-.97.134-1.385.47-.415.335-.692.738-.9 1.341-.208.604-.346 1.14-.346 1.61 0 .604.138 1.073.484 1.409.347.335.762.536 1.246.536.624 0 1.177-.268 1.593-.805.761-.805 1.038-1.744 1.038-2.817zm5.054-3.286H75.6l-1.8 8.45h-2.354l1.8-8.45zm.693-3.22h2.353l-.415 2.08h-2.354l.416-2.08zm4.015 3.22h2.215l-.207 1.073c.553-.47 1.107-.805 1.592-1.006.484-.201.969-.269 1.523-.269.692 0 1.315.202 1.661.604.416.402.624.94.624 1.61 0 .268-.07.872-.277 1.677l-1.039 4.762h-2.354l1.039-4.762c.138-.738.207-1.14.207-1.275 0-.268-.069-.536-.276-.67-.208-.135-.416-.269-.762-.269-.346 0-.762.134-1.177.403-.415.268-.761.67-.97 1.14-.207.335-.345 1.006-.622 2.012l-.762 3.488h-2.215l1.8-8.518z" fill="#fff"/></svg>
